public/logos/Bellini.svg

<svg version="1.1" id="Layer_1" xmlns="http://www.w3.org/2000/svg" xmlns:xlink="http://www.w3.org/1999/xlink" x="0px" y="0px"
	 width="100%" viewBox="0 0 1024 736" enable-background="new 0 0 1024 736" xml:space="preserve">
<path fill="#000000" opacity="1.000000" stroke="none" 
	d="
M697.945923,401.676697 
	C699.820557,400.785217 701.489441,400.780762 703.158142,400.681580 
	C710.684265,400.234161 712.960999,398.712616 713.318665,391.246094 
	C713.868042,379.778839 713.774109,368.258240 713.399353,356.778381 
	C713.201843,350.729462 711.004395,349.273315 704.711304,348.978210 
	C703.547241,348.923645 702.373718,348.910950 701.224243,348.743469 
	C699.662659,348.515991 698.224121,347.941925 698.137207,346.070831 
	C698.048645,344.162872 699.497681,343.390533 701.017395,343.197021 
	C710.217468,342.025452 718.861450,339.492126 726.792419,334.408356 
	C729.907715,332.411438 731.285461,334.829224 731.299438,337.903809 
	C731.333557,345.402863 731.233826,352.903931 731.371460,360.400787 
	C731.557861,370.554047 730.718445,380.725861 731.965393,390.861389 
	C732.939331,398.777863 734.031372,399.894043 741.776733,400.514893 
	C742.771973,400.594696 743.778503,400.608063 744.759583,400.772705 
	C746.265747,401.025360 747.129944,401.948456 747.116577,403.515564 
	C747.102539,405.162994 746.030029,405.918213 744.566956,406.031433 
	C742.577209,406.185486 740.573792,406.203369 738.576111,406.206238 
	C727.577332,406.221924 716.578552,406.221283 705.579773,406.214844 
	C690.679688,406.206116 675.779663,406.189514 660.879578,406.168304 
	C659.547302,406.166412 658.207581,406.182861 656.884766,406.053558 
	C655.275879,405.896240 653.906006,405.286652 653.953064,403.348022 
	C653.992004,401.743988 655.130005,401.197083 656.521973,400.759735 
	C663.329285,398.620911 664.533691,397.384552 664.640686,390.373871 
	C664.841553,377.211945 664.818420,364.043457 664.658081,350.880554 
	C664.581848,344.619781 661.392883,342.048431 655.202209,343.279572 
	C648.862854,344.540314 643.523376,347.986786 638.651733,352.150452 
	C637.070190,353.502228 637.060730,355.358337 637.071716,357.206696 
	C637.138123,368.371277 637.115356,379.537537 637.319580,390.699646 
	C637.444031,397.505310 638.687439,398.797058 645.413025,400.316833 
	C647.230042,400.727417 649.261230,400.986084 649.154236,403.476807 
	C649.043945,406.045898 646.944031,406.119415 645.113647,406.115204 
	C632.287476,406.085785 619.461365,405.927582 606.635376,405.936981 
	C593.490906,405.946594 580.342041,406.358002 567.203125,406.130798 
	C547.093750,405.783020 526.986267,406.250397 506.870483,405.911865 
	C492.925751,405.677155 478.907867,405.854065 464.927124,406.195129 
	C463.432587,406.231567 461.922882,406.182037 460.439880,406.006256 
	C458.941711,405.828644 458.009003,404.923737 458.065796,403.327515 
	C458.115326,401.936768 459.095398,401.294769 460.309326,401.023590 
	C461.115204,400.843475 461.957611,400.816193 462.785950,400.748840 
	C471.143616,400.069366 473.485687,398.104584 473.557220,389.653168 
	C473.768768,364.658478 473.749634,339.659668 473.539459,314.664825 
	C473.473083,306.773163 470.602631,304.354248 462.816101,304.055756 
	C461.650696,304.011078 460.477203,304.049622 459.321014,303.924561 
	C457.671082,303.746124 455.792053,303.695770 455.577057,301.447540 
	C455.334595,298.911926 457.296661,298.371307 459.132996,298.169708 
	C468.807251,297.107849 478.174927,295.154877 486.774719,290.242218 
	C489.339630,288.777008 491.334839,289.958649 491.681824,293.039276 
	C491.904907,295.019501 491.978760,297.025665 491.980316,299.020294 
	C492.002533,327.350403 491.991699,355.680542 492.018494,384.010651 
	C492.021332,387.008240 492.164673,390.008087 492.324951,393.002533 
	C492.565247,397.490936 494.945160,399.854736 499.424683,400.577209 
	C504.671204,401.423431 509.876343,401.198059 515.091919,400.641327 
	C518.745422,400.251312 521.234802,398.558563 521.906738,394.552673 
	C522.405579,391.578217 522.743958,388.626007 522.743530,385.619995 
	C522.740173,363.455750 522.746460,341.291534 522.739746,319.127289 
	C522.739258,317.628387 522.740540,316.121613 522.599487,314.631866 
	C521.718201,305.324707 519.840637,303.599487 510.407684,303.311005 
	C509.409637,303.280487 508.405792,303.265656 507.417236,303.142334 
	C506.175659,302.987427 505.161957,302.445862 505.020752,301.038574 
	C504.855988,299.396820 505.868347,298.490051 507.280823,298.240601 
	C510.390808,297.691498 513.544739,297.394043 516.659241,296.866852 
	C522.092163,295.947266 527.412537,294.669800 532.361267,292.083588 
	C539.663574,288.267426 541.053345,289.110107 541.045471,297.185791 
	C541.024353,318.850067 540.961060,340.514313 540.967834,362.178589 
	C540.970886,372.009766 540.981201,381.843719 541.213440,391.671082 
	C541.369324,398.266541 543.514832,400.154053 549.943665,400.727203 
	C554.414673,401.125763 558.850647,401.027496 563.292419,400.606110 
	C569.492249,400.017914 571.144348,398.527771 571.838379,392.349518 
	C573.219299,380.056030 572.937012,367.750580 571.798340,355.448761 
	C571.355164,350.660675 568.577820,349.023407 564.057678,348.874725 
	C561.205444,348.780914 556.506165,350.378571 556.380981,345.882629 
	C556.271729,341.959076 560.944702,343.042480 563.644836,342.501770 
	C570.221008,341.184937 576.540161,339.394531 582.379089,335.896973 
	C588.653625,332.138458 590.250610,333.137390 590.267822,340.318878 
	C590.303284,355.150543 590.145935,369.984619 590.361877,384.813385 
	C590.601562,401.274200 593.154602,401.159332 608.274231,400.694580 
	C617.169067,400.421143 618.607056,398.320923 618.714233,389.172852 
	C618.833374,379.008667 618.842407,368.841705 618.755493,358.677155 
	C618.686829,350.642822 616.648438,348.697876 608.714539,348.378021 
	C606.678894,348.295929 603.782410,349.057098 603.449341,346.028870 
	C603.066956,342.551880 606.246521,342.947479 608.405701,342.600800 
	C615.864197,341.403381 623.010193,339.430481 629.576782,335.486847 
	C634.400574,332.589844 636.110291,333.670349 636.288025,339.299347 
	C636.350586,341.282593 636.298035,343.269470 636.298035,345.286835 
	C638.760193,345.892487 639.903992,344.150208 641.324951,343.248108 
	C647.940063,339.048401 654.428955,334.722900 662.456543,333.463165 
	C675.034241,331.489502 682.893677,337.767883 683.124634,350.606354 
	C683.343445,362.768005 683.173035,374.936188 683.252441,387.100983 
	C683.326965,398.524689 683.655884,398.846130 694.770264,400.781708 
	C695.736328,400.949921 696.651611,401.410309 697.945923,401.676697 
z"/>
<path fill="#000000" opacity="1.000000" stroke="none" 
	d="
M287.812073,390.691498 
	C287.842651,364.573517 287.877808,338.918671 287.872986,313.263824 
	C287.871796,306.852478 288.236389,300.192932 279.876801,298.146332 
	C279.003998,297.932617 278.584991,297.101532 278.623535,296.200592 
	C278.675262,294.990814 279.569519,294.456207 280.592865,294.302246 
	C281.903076,294.105133 283.242462,294.031067 284.569580,294.027832 
	C301.395203,293.986694 318.221069,293.910248 335.046387,293.974762 
	C340.873840,293.997131 346.724762,294.348450 352.328308,296.143402 
	C363.760925,299.805573 367.082825,309.952393 360.225922,319.873444 
	C357.117706,324.370605 352.786774,327.440002 348.307617,330.365204 
	C346.811584,331.342224 345.055176,332.037384 343.991852,334.312775 
	C346.364532,335.463898 348.724762,336.576843 351.056793,337.745972 
	C360.067505,342.263611 367.697113,348.354645 371.994690,357.699677 
	C380.271088,375.696686 375.256134,400.429657 344.771210,405.306580 
	C338.305115,406.341003 331.836182,406.289001 325.346283,406.294708 
	C311.519226,406.306915 297.692017,406.332703 283.865234,406.272217 
	C282.004639,406.264069 279.779999,407.047760 278.047180,404.019989 
	C283.645233,401.608704 288.416748,398.221619 287.812073,390.691498 
M354.001404,376.368103 
	C358.263184,360.089813 344.654236,344.715637 333.385895,339.643066 
	C332.092560,339.060822 330.793884,339.166565 329.500641,339.663483 
	C323.442261,341.991333 317.393341,344.344452 311.319458,346.631134 
	C309.182983,347.435425 308.168549,348.813660 308.181427,351.143158 
	C308.251282,363.799957 308.233459,376.457214 308.296722,389.114075 
	C308.319824,393.732880 310.845734,396.312469 315.345520,396.505402 
	C320.159760,396.711853 325.037445,396.871643 329.809631,396.345825 
	C341.737274,395.031555 350.545471,389.487549 354.001404,376.368103 
M308.607544,308.473907 
	C307.923889,317.999237 307.838715,327.509338 308.661469,337.394867 
	C314.904816,335.297760 320.338104,333.273407 325.560669,330.672668 
	C330.664032,328.131317 335.649048,325.398926 339.317627,320.921417 
	C341.923309,317.741211 343.744049,314.116425 342.062622,309.862274 
	C340.408081,305.676178 336.542145,304.606567 332.680298,304.408691 
	C326.867096,304.110901 321.020721,304.261993 315.196838,304.464264 
	C312.734772,304.549774 310.122742,304.922821 308.607544,308.473907 
z"/>
<path fill="#000000" opacity="1.000000" stroke="none" 
	d="
M444.958160,337.877014 
	C449.424713,340.645752 451.745697,345.219696 456.906952,347.085907 
	C460.342651,348.328156 457.192078,350.773834 455.067963,351.735504 
	C446.732208,355.509430 438.348022,359.176086 429.992249,362.905914 
	C422.852600,366.092957 415.806366,369.507477 408.564301,372.439850 
	C404.558777,374.061707 404.364807,376.140656 405.952271,379.709991 
	C415.137512,400.362732 439.071228,403.644806 453.965820,386.282654 
	C455.446106,384.557098 456.571442,380.321808 459.832855,383.045746 
	C462.727722,385.463593 459.519928,387.937256 458.037933,389.827637 
	C446.578583,404.444550 431.630249,410.914551 413.229401,407.400238 
	C383.939972,401.806335 378.452148,368.612671 390.317535,350.830597 
	C402.032623,333.273712 426.154266,327.402222 444.958160,337.877014 
M421.949280,338.492615 
	C408.183838,337.012939 398.391602,352.554535 403.713959,368.493927 
	C413.601410,364.026215 423.439392,359.571564 433.286865,355.138062 
	C435.620178,354.087555 435.870819,352.559845 434.914246,350.282104 
	C432.523956,344.590363 428.789001,340.424835 421.949280,338.492615 
z"/>
<path fill="#000000" opacity="1.000000" stroke="none" 
	d="
M571.051147,314.573547 
	C573.910522,308.138184 578.320740,305.644714 584.118286,306.849091 
	C588.891724,307.840729 592.373474,312.326202 592.270813,317.351746 
	C592.163574,322.598846 588.559753,326.802765 583.330078,327.781372 
	C576.119995,329.130524 570.580566,323.397034 571.051147,314.573547 
z"/>
<path fill="#000000" opacity="1.000000" stroke="none" 
	d="
M723.736084,306.791962 
	C729.130371,307.942200 732.605042,310.606415 733.269409,315.983582 
	C733.802795,320.300354 732.397705,323.884338 728.691711,326.293579 
	C724.475586,329.034454 720.156189,328.920929 716.165894,325.897247 
	C712.554993,323.161011 711.038574,319.432617 712.214417,314.906555 
	C713.528259,309.849365 716.986572,307.362000 723.736084,306.791962 
z"/>
</svg>

<svg xmlns="http://www.w3.org/2000/svg" xml:space="preserve" viewBox="0 0 1024 736"><path d="M697.946 401.677c1.875-.892 3.543-.896 5.212-.995 7.526-.448 9.803-1.97 10.16-9.436.55-11.467.456-22.988.081-34.468-.197-6.049-2.395-7.505-8.688-7.8-1.164-.054-2.337-.067-3.487-.235-1.561-.227-3-.801-3.087-2.672-.088-1.908 1.36-2.68 2.88-2.874 9.2-1.172 17.844-3.705 25.775-8.789 3.116-1.997 4.493.421 4.507 3.496.035 7.499-.065 15 .072 22.497.187 10.153-.653 20.325.594 30.46.974 7.917 2.066 9.033 9.812 9.654.995.08 2.002.093 2.983.258 1.506.252 2.37 1.175 2.357 2.743-.014 1.647-1.087 2.402-2.55 2.515-1.99.154-3.993.172-5.99.175-11 .016-21.998.015-32.997.009q-22.35-.014-44.7-.047c-1.333-.002-2.672.015-3.995-.114-1.61-.158-2.979-.767-2.932-2.706.039-1.604 1.177-2.15 2.569-2.588 6.807-2.14 8.012-3.375 8.119-10.386.2-13.162.177-26.33.017-39.493-.076-6.261-3.265-8.833-9.456-7.601-6.34 1.26-11.679 4.707-16.55 8.87-1.582 1.352-1.591 3.208-1.58 5.057.066 11.164.043 22.33.248 33.493.124 6.805 1.367 8.097 8.093 9.617 1.817.41 3.848.67 3.741 3.16-.11 2.569-2.21 2.642-4.04 2.638-12.827-.03-25.653-.187-38.479-.178-13.144.01-26.293.421-39.432.194-20.11-.348-40.217.12-60.333-.22-13.944-.234-27.962-.057-41.943.284a32 32 0 0 1-4.487-.189c-1.498-.177-2.431-1.082-2.374-2.678.05-1.391 1.03-2.033 2.243-2.304.806-.18 1.649-.208 2.477-.275 8.358-.68 10.7-2.644 10.771-11.096.212-24.995.193-49.993-.018-74.988-.066-7.892-2.936-10.31-10.723-10.61-1.165-.044-2.339-.005-3.495-.13-1.65-.179-3.529-.23-3.744-2.477-.242-2.536 1.72-3.077 3.556-3.278 9.674-1.062 19.042-3.015 27.642-7.928 2.565-1.465 4.56-.283 4.907 2.797.223 1.98.297 3.987.298 5.981.023 28.33.012 56.66.038 84.99.003 2.998.147 5.998.307 8.993.24 4.488 2.62 6.852 7.1 7.574 5.246.846 10.451.621 15.667.064 3.653-.39 6.143-2.082 6.815-6.088.499-2.975.837-5.927.837-8.933-.004-22.164.002-44.328-.004-66.493 0-1.499 0-3.005-.14-4.495-.882-9.307-2.76-11.033-12.192-11.321-.998-.03-2.002-.045-2.99-.169-1.242-.155-2.256-.696-2.397-2.103-.165-1.642.847-2.549 2.26-2.798 3.11-.55 6.264-.847 9.378-1.374 5.433-.92 10.754-2.197 15.702-4.783 7.303-3.817 8.692-2.974 8.684 5.102-.02 21.664-.084 43.328-.077 64.993.003 9.83.013 19.665.245 29.492.156 6.596 2.302 8.483 8.73 9.056 4.472.399 8.908.3 13.35-.12 6.2-.59 7.851-2.08 8.545-8.257 1.381-12.294 1.099-24.6-.04-36.901-.443-4.788-3.22-6.426-7.74-6.574-2.853-.094-7.552 1.504-7.677-2.992-.11-3.924 4.564-2.84 7.264-3.381 6.576-1.317 12.895-3.107 18.734-6.605 6.275-3.759 7.872-2.76 7.889 4.422.035 14.832-.122 29.666.094 44.494.24 16.461 2.793 16.346 17.912 15.882 8.895-.274 10.333-2.374 10.44-11.522.12-10.164.128-20.331.041-30.496-.068-8.034-2.107-9.98-10.04-10.299-2.036-.082-4.933.68-5.266-2.35-.382-3.476 2.798-3.08 4.957-3.427 7.458-1.198 14.604-3.17 21.17-7.114 4.825-2.897 6.534-1.817 6.712 3.812.063 1.984.01 3.97.01 5.988 2.462.605 3.606-1.137 5.027-2.039 6.615-4.2 13.104-8.525 21.132-9.785 12.577-1.973 20.437 4.305 20.668 17.143.218 12.162.048 24.33.127 36.495.075 11.424.404 11.745 11.518 13.68.966.169 1.882.63 3.176.896M287.812 390.691c.03-26.117.066-51.772.061-77.427-.001-6.412.363-13.071-7.996-15.118-.873-.213-1.292-1.044-1.253-1.945.051-1.21.946-1.745 1.969-1.899 1.31-.197 2.65-.27 3.977-.274 16.825-.041 33.651-.118 50.476-.053 5.828.022 11.679.373 17.282 2.168 11.433 3.663 14.755 13.81 7.898 23.73-3.108 4.498-7.44 7.567-11.918 10.492-1.496.977-3.253 1.672-4.316 3.948 2.373 1.15 4.733 2.264 7.065 3.433 9.01 4.518 16.64 10.609 20.938 19.954 8.276 17.997 3.261 42.73-27.224 47.607-6.466 1.034-12.935.982-19.425.988-13.827.012-27.654.038-41.48-.023-1.861-.008-4.086.776-5.819-2.252 5.598-2.411 10.37-5.798 9.765-13.329m66.19-14.323c4.261-16.278-9.348-31.652-20.616-36.725-1.293-.582-2.592-.476-3.885.02-6.059 2.328-12.108 4.681-18.182 6.968-2.136.804-3.15 2.183-3.138 4.512.07 12.657.052 25.314.116 37.971.023 4.619 2.549 7.198 7.049 7.391 4.814.207 9.691.367 14.464-.16 11.927-1.313 20.735-6.857 24.191-19.977m-45.393-67.894c-.684 9.525-.77 19.035.053 28.92 6.244-2.096 11.677-4.12 16.9-6.721 5.103-2.542 10.088-5.274 13.757-9.752 2.605-3.18 4.426-6.805 2.745-11.059-1.655-4.186-5.52-5.255-9.383-5.453-5.813-.298-11.66-.147-17.483.055-2.462.086-5.074.459-6.59 4.01"/><path d="M444.958 337.877c4.467 2.769 6.788 7.343 11.949 9.209 3.436 1.242.285 3.688-1.839 4.65-8.336 3.773-16.72 7.44-25.076 11.17-7.14 3.187-14.186 6.601-21.428 9.534-4.005 1.622-4.2 3.7-2.612 7.27 9.186 20.653 33.12 23.935 48.014 6.573 1.48-1.726 2.605-5.961 5.867-3.237 2.895 2.418-.313 4.891-1.795 6.782-11.46 14.617-26.408 21.087-44.809 17.572-29.289-5.594-34.777-38.787-22.911-56.57 11.715-17.556 35.836-23.428 54.64-12.953m-23.009.616c-13.765-1.48-23.557 14.062-18.235 30 9.887-4.467 19.725-8.921 29.573-13.355 2.333-1.05 2.584-2.578 1.627-4.856-2.39-5.692-6.125-9.857-12.965-11.79M571.051 314.574c2.86-6.436 7.27-8.93 13.067-7.725 4.774.992 8.255 5.477 8.153 10.503-.107 5.247-3.711 9.45-8.94 10.43-7.211 1.349-12.75-4.385-12.28-13.208M723.736 306.792c5.394 1.15 8.869 3.814 9.533 9.192.534 4.316-.871 7.9-4.577 10.31-4.216 2.74-8.536 2.627-12.526-.397-3.611-2.736-5.127-6.464-3.952-10.99 1.314-5.058 4.773-7.545 11.522-8.115"/></svg>
